wp-content/themes/sd-accesslasers/public/images/product/icons/drawing.svg

<?xml version="1.0" encoding="UTF-8"?>
<svg width="20px" height="20px" viewBox="0 0 20 20" version="1.1" xmlns="http://www.w3.org/2000/svg" xmlns:xlink="http://www.w3.org/1999/xlink">
    <!-- Generator: Sketch 55 (78076) - https://sketchapp.com -->
    <title>Mechanical drawing</title>
    <desc>Created with Sketch.</desc>
    <g id="Product" stroke="none" stroke-width="1" fill="none" fill-rule="evenodd">
        <g id="AL_Product-Copy" transform="translate(-1452.000000, -776.000000)" fill="currentColor" fill-rule="nonzero">
            <g id="Hero" transform="translate(149.000000, 28.000000)">
                <g id="Product" transform="translate(0.000000, 104.000000)">
                    <g id="Content" transform="translate(975.000000, 122.000000)">
                        <g id="3" transform="translate(0.000000, 458.000000)">
                            <g id="Downloads-Copy" transform="translate(13.000000, 64.000000)">
                                <g id="3" transform="translate(317.000000, 0.000000)">
                                    <g id="study" transform="translate(0.000000, 2.000000)">
                                        <path d="M15.8160278,11.0396898 L12.6420644,7.87859753 L15.062279,5.46497365 C15.6669655,4.86031768 15.999965,4.0564118 15.999965,3.20131845 C15.999965,2.3462251 15.6669655,1.54231922 15.0623103,0.937694502 C14.4576863,0.333007284 13.6537814,7.43833786e-06 12.7986891,7.43833786e-06 C11.9435968,7.43833786e-06 11.1396607,0.333007284 10.5350055,0.937663252 L8.12710331,3.34553713 L4.95076494,0.182163604 C4.83307764,0.0649761581 4.67348416,-0.000805061284 4.50754695,7.43833786e-06 C4.34148473,0.000601188062 4.182485,0.0672261571 4.0656102,0.185226102 L0.180929283,4.10806803 C-0.0614765554,4.35284916 -0.0601015577,4.74756773 0.183991778,4.99069262 L3.33936143,8.13334741 L1.5883019,9.88440909 C1.51217703,9.96053406 1.45702087,10.055034 1.42814592,10.1587527 L0.0228983015,15.2074066 C-0.0376953457,15.4251565 0.0239607997,15.6586877 0.184241778,15.8180938 C0.302991576,15.9362188 0.462116307,16 0.62505353,16 C0.681990934,16 0.739428336,15.9921875 0.795771991,15.9761875 L5.84441968,14.5420944 C6.05741932,14.4815945 6.22254404,14.3128758 6.27841894,14.0985946 C6.33429385,13.8843135 6.27260645,13.6564698 6.11626297,13.4996262 L2.93339337,10.3070964 L10.3494745,2.89100609 L13.1075324,5.64906731 L7.43022949,11.3108772 C7.31244844,11.4283146 7.24638605,11.5878458 7.24657355,11.7541582 C7.24676105,11.9204706 7.31326094,12.0798456 7.43129199,12.1970018 L11.0800358,15.8185938 C11.1971294,15.9348125 11.3554103,16 11.5203163,16 C11.5211913,16 11.5221288,16 11.5230038,16 C11.6889098,15.9992813 11.8476907,15.9326563 11.9644093,15.8147813 L15.8190903,11.9223144 C16.0614961,11.6775333 16.0601211,11.2827522 15.8160278,11.0396898 Z M4.48107824,13.6299386 L1.52583325,14.4693757 L2.3534881,11.4958771 L4.48107824,13.6299386 Z M4.22326618,7.24947282 L1.50764578,4.54478658 L4.51279694,1.51013174 L5.50448276,2.49775628 L4.27323484,3.74916195 C4.03117275,3.99522433 4.03436025,4.3909429 4.28042233,4.63300528 C4.40214087,4.75278648 4.56045311,4.8125052 4.71873409,4.8125052 C4.88039006,4.8125052 5.04195229,4.75016148 5.16429583,4.62584904 L6.3902,3.37988087 L7.24326106,4.22947422 L4.22326618,7.24947282 Z M11.2333793,2.00710026 L11.4189415,1.82153784 C11.7874721,1.45297551 12.2774713,1.25000686 12.7986891,1.25000686 C13.319907,1.25000686 13.8098749,1.45297551 14.1784368,1.82156909 C14.5469987,2.19010017 14.7499671,2.68009994 14.7499671,3.20131845 C14.7499671,3.72253696 14.5469987,4.21253673 14.1789993,4.58047406 L13.9925934,4.76638022 L11.2333793,2.00710026 Z M11.5165038,14.4906257 L8.75772724,11.752377 L11.7570034,8.76131587 L12.6001582,9.60106547 L11.4002228,10.8096899 C11.1570357,11.0546585 11.1584732,11.4503771 11.4034415,11.6935645 C11.5253163,11.8145957 11.684566,11.8750332 11.8437845,11.8750332 C12.0044717,11.8750332 12.165159,11.8134394 12.287315,11.690377 L13.4858755,10.4831588 L14.492405,11.4855958 L11.5165038,14.4906257 Z" id="Shape"></path>
                                    </g>
                                </g>
                            </g>
                        </g>
                    </g>
                </g>
            </g>
        </g>
    </g>
</svg>

<svg width="20" height="20" viewBox="0 0 20 20" version="1.1" xmlns="http://www.w3.org/2000/svg"><g id="Product" stroke="none" stroke-width="1" fill="none" fill-rule="evenodd"><g id="AL_Product-Copy" transform="translate(-1452 -776)" fill="currentColor" fill-rule="nonzero"><g id="Hero" transform="translate(149 28)"><g id="Product" transform="translate(0 104)"><g id="Content" transform="translate(975 122)"><g id="3" transform="translate(0 458)"><g id="Downloads-Copy" transform="translate(13 64)"><g id="3" transform="translate(317)"><g id="study" transform="translate(0 2)"><path d="M15.816 11.04l-3.174-3.161 2.42-2.414A3.18 3.18 0 0 0 16 3.201a3.18 3.18 0 0 0-.938-2.263A3.18 3.18 0 0 0 12.8 0a3.18 3.18 0 0 0-2.264.938L8.127 3.346 4.951.182a.624.624 0 0 0-.885.003L.18 4.108a.625.625 0 0 0 .003.883l3.155 3.142-1.75 1.751a.625.625 0 0 0-.16.275L.022 15.207a.625.625 0 0 0 .773.77l5.048-1.435a.625.625 0 0 0 .272-1.042l-3.183-3.193 7.416-7.416 2.759 2.758-5.678 5.662a.625.625 0 0 0 .001.886l3.649 3.622a.625.625 0 0 0 .44.181h.003a.625.625 0 0 0 .441-.185l3.855-3.893a.625.625 0 0 0-.003-.882zM4.481 13.63l-2.955.84.827-2.974 2.128 2.134zm-.258-6.38L1.508 4.544 4.513 1.51l.991.988-1.23 1.251a.625.625 0 0 0 .89.877L6.39 3.38l.853.85-3.02 3.02zm7.01-5.243l.186-.185a1.938 1.938 0 0 1 1.38-.572c.52 0 1.01.203 1.38.572.368.368.571.858.571 1.38 0 .52-.203 1.01-.571 1.378l-.186.186-2.76-2.759zm.284 12.484l-2.76-2.739 3-2.99.843.84-1.2 1.208a.625.625 0 0 0 .887.88l1.199-1.207 1.006 1.003-2.975 3.005z" id="Shape"/></g></g></g></g></g></g></g></g></g></svg>
